lib/svgs/unassigned.svg

<?xml version="1.0" encoding="UTF-8" standalone="no"?>
<svg width="20px" height="20px" viewBox="0 0 20 20" version="1.1" xmlns="http://www.w3.org/2000/svg" xmlns:xlink="http://www.w3.org/1999/xlink">
    <defs></defs>
    <g id="Icons" stroke="none" stroke-width="1" fill="none" fill-rule="evenodd">
        <g id="Web" transform="translate(-193.000000, -2246.000000)" fill="#000000">
            <g id="user/unassigned" transform="translate(193.000000, 2246.000000)">
                <path d="M2.60050073,18.001 C2.56050073,18.001 2.51950073,17.996 2.47950073,17.988 C2.15450073,17.922 1.94550073,17.605 2.01250073,17.279 L2.61750073,14.333 C2.62850073,14.282 2.64550073,14.233 2.66850073,14.187 C2.92250073,13.677 3.35850073,13.29 3.89550073,13.098 L7.51650073,11.807 C7.62050073,11.77 7.69050073,11.67 7.69050073,11.56 L7.69050073,11.032 C7.69050073,10.714 7.54950073,10.415 7.30350073,10.212 C6.42550073,9.489 5.92150073,8.43 5.92150073,7.307 L5.92150073,5.789 C5.92150073,3.7 7.62150073,2 9.71150073,2 C11.8005007,2 13.5005007,3.7 13.5005007,5.789 L13.5005007,7.307 C13.5005007,8.425 12.9995007,9.481 12.1275007,10.206 C11.8775007,10.413 11.7335007,10.718 11.7335007,11.043 L11.7335007,11.561 C11.7335007,11.671 11.8035007,11.771 11.9075007,11.808 C12.2195007,11.919 12.3825007,12.262 12.2705007,12.574 C12.1595007,12.886 11.8145007,13.051 11.5045007,12.938 C10.9235007,12.73 10.5335007,12.177 10.5335007,11.561 L10.5335007,11.043 C10.5335007,10.36 10.8355007,9.718 11.3615007,9.282 C11.9575007,8.787 12.3005007,8.067 12.3005007,7.307 L12.3005007,5.789 C12.3005007,4.361 11.1395007,3.2 9.71150073,3.2 C8.28350073,3.2 7.12150073,4.361 7.12150073,5.789 L7.12150073,7.307 C7.12150073,8.07 7.46650073,8.792 8.06650073,9.287 C8.59050073,9.718 8.89050073,10.354 8.89050073,11.032 L8.89050073,11.56 C8.89050073,12.176 8.50050073,12.73 7.91950073,12.937 L4.29850073,14.229 C4.07750073,14.308 3.89350073,14.46 3.77550073,14.661 L3.18750073,17.522 C3.12950073,17.805 2.87950073,18.001 2.60050073,18.001 L2.60050073,18.001 M16.3839007,17.3 C16.3839007,17.687 16.0709007,18 15.6839007,18 C15.2969007,18 14.9839007,17.687 14.9839007,17.3 C14.9839007,16.913 15.2969007,16.6 15.6839007,16.6 C16.0709007,16.6 16.3839007,16.913 16.3839007,17.3 L16.3839007,17.3 M15.0839007,15.4536 L15.0839007,15.2046 C15.0839007,14.5656 15.4629007,13.9876 16.0489007,13.7316 C16.3809007,13.5856 16.5959007,13.2576 16.5959007,12.8946 C16.5959007,12.3916 16.1869007,11.9836 15.6839007,11.9836 C15.3439007,11.9836 15.0339007,12.1706 14.8759007,12.4716 C14.7219007,12.7656 14.3579007,12.8776 14.0659007,12.7236 C13.7719007,12.5696 13.6599007,12.2066 13.8129007,11.9136 C14.1799007,11.2166 14.8959007,10.7826 15.6839007,10.7826 C16.8489007,10.7826 17.7959007,11.7306 17.7959007,12.8946 C17.7959007,13.7346 17.2989007,14.4936 16.5289007,14.8306 C16.3799007,14.8966 16.2839007,15.0426 16.2839007,15.2046 L16.2839007,15.4536 C16.2839007,15.7846 16.0124488,16.0536001 15.6839007,16.0536 C15.1856079,16.0535999 15.0839007,15.4536 15.0839007,15.4536 Z" id="Shape"></path>
            </g>
        </g>
    </g>
</svg>

<svg xmlns="http://www.w3.org/2000/svg" viewBox="0 0 20 20">
    <path fill="#000" fill-rule="evenodd" d="M2.6 18.001a.599.599 0 0 1-.588-.722l.606-2.946a.617.617 0 0 1 .05-.146c.255-.51.69-.897 1.228-1.089l3.62-1.291a.263.263 0 0 0 .175-.247v-.528a1.06 1.06 0 0 0-.387-.82 3.757 3.757 0 0 1-1.382-2.905V5.789a3.794 3.794 0 0 1 7.579 0v1.518a3.766 3.766 0 0 1-1.373 2.899c-.25.207-.394.512-.394.837v.518c0 .11.07.21.174.247a.599.599 0 1 1-.403 1.13 1.466 1.466 0 0 1-.971-1.377v-.518c0-.683.302-1.325.828-1.761a2.567 2.567 0 0 0 .939-1.975V5.789a2.591 2.591 0 0 0-5.18 0v1.518c0 .763.346 1.485.946 1.98.524.431.824 1.067.824 1.745v.528c0 .616-.39 1.17-.971 1.377l-3.621 1.292a.99.99 0 0 0-.523.432l-.588 2.861a.6.6 0 0 1-.587.479m13.783-.701a.7.7 0 1 1-1.4.001.7.7 0 0 1 1.4-.001m-1.3-1.846v-.25c0-.638.379-1.216.965-1.472a.915.915 0 0 0-.365-1.748.91.91 0 0 0-.808.488.6.6 0 1 1-1.063-.558 2.11 2.11 0 1 1 2.716 2.917.41.41 0 0 0-.245.374v.249c0 .33-.272.6-.6.6-.498 0-.6-.6-.6-.6z"/>
</svg>
